_site/images/homepage/verification-basic.svg

<svg fill="none" height="40" viewBox="0 0 40 40" width="40" xmlns="http://www.w3.org/2000/svg"><path d="m32.5 40h-25c-4.1425 0-7.5-3.3575-7.5-7.5v-25c0-4.1425 3.3575-7.5 7.5-7.5h25c4.1425 0 7.5 3.3575 7.5 7.5v25c0 4.1425-3.3575 7.5-7.5 7.5z" fill="#ff647c"/><g fill="#fcfcfc"><path clip-rule="evenodd" d="m20.2012 18.3675 4.3751 1.4875c.2537.0862.4237.3237.4237.5912v3.3488c0 4.0862-4.5612 6.0725-4.7562 6.155-.0775.0337-.1613.05-.2438.05s-.1662-.0163-.2438-.0488c-.1949-.0837-4.7562-2.0687-4.7562-6.1562v-3.3488c0-.2675.17-.505.4237-.5912l4.375-1.4875c.1313-.045.2725-.045.4025 0zm.2458 7.5637 2.2912-2.9162c.285-.3625.2213-.8863-.1412-1.1688-.3625-.285-.8863-.2212-1.17.14l-1.755 2.2325-.7988-.6837c-.3475-.3-.8737-.2588-1.1737.09-.3013.35-.26.875.09 1.175l1.4587 1.25c.1513.13.345.2.5425.2.0275 0 .055-.0013.0825-.0038.2263-.0225.4338-.1362.5738-.315z" fill-rule="evenodd"/><path d="m27.5 10h-15c-1.375 0-2.5 1.125-2.5 2.5v13.3338c0 1.375 1.125 2.5 2.5 2.5h2.4837c-.4-.5088-.75-1.0588-1.0249-1.6663h-1.4588c-.4588 0-.8338-.375-.8338-.8337v-11.6663h16.6675v11.6663c0 .4587-.375.8337-.8337.8337h-1.4587c-.275.6088-.625 1.1588-1.0163 1.6663h2.475c1.375 0 2.5-1.125 2.5-2.5v-13.3338c0-1.375-1.125-2.5-2.5-2.5z"/></g></svg>

<svg width="40" height="40" viewBox="0 0 40 40" fill="none" xmlns="http://www.w3.org/2000/svg">
<path d="M32.5 40H7.5C3.3575 40 0 36.6425 0 32.5V7.5C0 3.3575 3.3575 0 7.5 0H32.5C36.6425 0 40 3.3575 40 7.5V32.5C40 36.6425 36.6425 40 32.5 40Z" fill="#FF647C"/>
<path fill-rule="evenodd" clip-rule="evenodd" d="M20.2012 18.3675L24.5763 19.855C24.83 19.9412 25 20.1787 25 20.4462V23.795C25 27.8812 20.4388 29.8675 20.2438 29.95C20.1663 29.9837 20.0825 30 20 30C19.9175 30 19.8338 29.9837 19.7562 29.9512C19.5613 29.8675 15 27.8825 15 23.795V20.4462C15 20.1787 15.17 19.9412 15.4237 19.855L19.7987 18.3675C19.93 18.3225 20.0712 18.3225 20.2012 18.3675ZM20.447 25.9312L22.7382 23.015C23.0232 22.6525 22.9595 22.1287 22.597 21.8462C22.2345 21.5612 21.7107 21.625 21.427 21.9862L19.672 24.2187L18.8732 23.535C18.5257 23.235 17.9995 23.2762 17.6995 23.625C17.3982 23.975 17.4395 24.5 17.7895 24.8L19.2482 26.05C19.3995 26.18 19.5932 26.25 19.7907 26.25C19.8182 26.25 19.8457 26.2487 19.8732 26.2462C20.0995 26.2237 20.307 26.11 20.447 25.9312Z" fill="#FCFCFC"/>
<path d="M27.5 10H12.5C11.125 10 10 11.125 10 12.5V25.8338C10 27.2088 11.125 28.3338 12.5 28.3338H14.9837C14.5837 27.825 14.2337 27.275 13.9588 26.6675H12.5C12.0412 26.6675 11.6662 26.2925 11.6662 25.8338V14.1675H28.3337V25.8338C28.3337 26.2925 27.9587 26.6675 27.5 26.6675H26.0413C25.7663 27.2763 25.4163 27.8263 25.025 28.3338H27.5C28.875 28.3338 30 27.2088 30 25.8338V12.5C30 11.125 28.875 10 27.5 10Z" fill="#FCFCFC"/>
</svg>
